;Generated with Cura_SteamEngine 13.12
M140 S58.000000
M109 T0 S175.000000
T0
M190 S58.000000
;Sliced at: Sun 12-01-2014 17:51:41
;Basic settings: Layer height: 0.1 Walls: 1 Fill: 20
;Print time: #P_TIME#
;Filament used: #F_AMNT#m #F_WGHT#g
;Filament cost: #F_COST#
;M190 S58 ;Uncomment to add your own bed temperature line
;M109 S175 ;Uncomment to add your own temperature line
G21        ;metric values
G90        ;absolute positioning
M107       ;start with the fan off
G28 X0 Y0  ;move X/Y to min endstops
G28 Z0     ;move Z to min endstops
G1 Z15.0 F6000 ;move the platform down 15mm
G92 E0                  ;zero the extruded length
G1 F200 E3              ;extrude 3mm of feed stock
G92 E0                  ;zero the extruded length again
G1 F6000
;Put printing message on LCD screen
M117 Printing...

;Layer count: 19
;LAYER:0
M107
G0 F2460 X89.76 Y92.37 Z0.30
;TYPE:SKIRT
G1 F2400 E0.00000
G1 F1140 X98.84 Y87.13 E0.58871
G1 X100.58 Y87.13 E0.68643
G1 X105.88 Y90.19 E1.02964
G1 X106.39 Y91.07 E1.08659
G1 X113.20 Y87.13 E1.52840
G1 X114.94 Y87.13 E1.62606
G1 X120.24 Y90.19 E1.96932
G1 X121.11 Y91.69 E2.06709
G1 X121.11 Y102.19 E2.65586
G1 X120.24 Y103.69 E2.75363
G1 X117.98 Y105.00 E2.90035
G1 X120.24 Y106.31 E3.04705
G1 X121.11 Y107.81 E3.14482
G1 X121.11 Y118.30 E3.73359
G1 X120.24 Y119.81 E3.83136
G1 X114.94 Y122.87 E4.17462
G1 X113.20 Y122.87 E4.27228
G1 X106.39 Y118.93 E4.71409
G1 X105.88 Y119.81 E4.77104
G1 X100.58 Y122.87 E5.11425
G1 X98.84 Y122.87 E5.21197
G1 X89.76 Y117.63 E5.80068
G1 X88.89 Y116.12 E5.89844
G1 X88.89 Y110.00 E6.24160
G1 X89.76 Y108.49 E6.33936
G1 X95.81 Y105.00 E6.73156
G1 X89.76 Y101.51 E7.12378
G1 X88.89 Y100.00 E7.22154
G1 X88.89 Y93.88 E7.56470
G1 X89.76 Y92.37 E7.66246
G0 F2460 X103.62 Y105.00
G1 F1140 X105.88 Y106.31 E7.80911
G1 X106.39 Y107.19 E7.86606
G1 X110.17 Y105.00 E8.11136
G1 X106.39 Y102.81 E8.35668
G1 X105.88 Y103.69 E8.41364
G1 X103.62 Y105.00 E8.56031
G1 F2400 E4.06031
G0 F2460 X102.75 Y100.88
;TYPE:WALL-INNER
G1 F2400 E8.56031
G1 F1140 X99.71 Y102.63 E8.75716
G1 X92.89 Y98.69 E9.19950
G1 X92.89 Y95.19 E9.39622
G1 X99.71 Y91.25 E9.83856
G1 X102.75 Y93.00 E10.03540
G1 X102.75 Y100.88 E10.47762
G0 F2460 X103.25 Y101.17
;TYPE:WALL-OUTER
G1 F1140 X99.71 Y103.21 E10.70685
G1 X92.39 Y98.98 E11.18157
G1 X92.39 Y94.90 E11.41074
G1 X99.71 Y90.67 E11.88546
G1 X103.25 Y92.71 E12.11469
G1 X103.25 Y101.17 E12.58935
G0 F2460 X102.56 Y100.79
;TYPE:FILL
G1 F1140 X95.59 Y93.83 E13.14200
G0 F2460 X95.14 Y94.08
G1 F1140 X102.11 Y101.05 E13.69461
G0 F2460 X101.66 Y101.31
G1 F1140 X94.70 Y94.34 E14.24730
G0 F2460 X94.25 Y94.60
G1 F1140 X101.21 Y101.57 E14.79998
G0 F2460 X100.76 Y101.82
G1 F1140 X93.80 Y94.86 E15.35267
G0 F2460 X93.35 Y95.12
G1 F1140 X100.32 Y102.08 E15.90532
G0 F2460 X99.87 Y102.34
G1 F1140 X93.06 Y95.54 E16.44542
G0 F2460 X93.06 Y96.25
G1 F1140 X98.62 Y101.80 E16.88619
G0 F2460 X96.94 Y100.83
G1 F1140 X93.06 Y96.95 E17.19413
G0 F2460 X93.06 Y97.66
G1 F1140 X95.27 Y99.86 E17.36915
G0 F2460 X93.59 Y98.90
G1 F1140 X93.06 Y98.37 E17.41130
G0 F2460 X96.04 Y93.57
G1 F1140 X102.57 Y100.10 E17.92977
G0 F2460 X102.57 Y99.39
G1 F1140 X96.49 Y93.31 E18.41269
G0 F2460 X96.94 Y93.05
G1 F1140 X102.57 Y98.69 E18.86004
G0 F2460 X102.57 Y97.98
G1 F1140 X97.39 Y92.79 E19.27184
G0 F2460 X97.83 Y92.53
G1 F1140 X102.57 Y97.27 E19.64804
G0 F2460 X102.57 Y96.56
G1 F1140 X98.28 Y92.27 E19.98860
G0 F2460 X98.73 Y92.01
G1 F1140 X102.57 Y95.86 E20.29359
G0 F2460 X102.57 Y95.15
G1 F1140 X99.18 Y91.75 E20.56299
G0 F2460 X99.63 Y91.50
G1 F1140 X102.57 Y94.44 E20.79687
G0 F2460 X102.57 Y93.73
G1 F1140 X101.07 Y92.23 E20.91601
G1 F2400 E16.41601
G0 F2460 X107.25 Y95.19
;TYPE:WALL-INNER
G1 F2400 E20.91601
G1 F1140 X114.07 Y91.25 E21.35827
G1 X117.11 Y93.00 E21.55517
G1 X117.11 Y100.88 E21.99739
G1 X114.07 Y102.63 E22.19428
G1 X107.25 Y98.69 E22.63654
G1 X107.25 Y95.19 E22.83338
G0 F2460 X106.75 Y94.90
;TYPE:WALL-OUTER
G1 F1140 X114.07 Y90.67 E23.30805
G1 X117.61 Y92.71 E23.53733
G1 X117.61 Y101.17 E24.01199
G1 X114.07 Y103.21 E24.24127
G1 X106.75 Y98.98 E24.71594
G1 X106.75 Y94.90 E24.94511
G0 F2460 X107.58 Y95.20
;TYPE:FILL
G1 F1140 X114.54 Y102.16 E25.49768
G0 F2460 X114.99 Y101.90
G1 F1140 X108.02 Y94.94 E26.05024
G0 F2460 X108.47 Y94.68
G1 F1140 X115.43 Y101.65 E26.60281
G0 F2460 X115.88 Y101.39
G1 F1140 X108.92 Y94.42 E27.15542
G0 F2460 X109.37 Y94.17
G1 F1140 X116.33 Y101.13 E27.70795
G0 F2460 X116.78 Y100.87
G1 F1140 X109.82 Y93.91 E28.26052
G0 F2460 X110.26 Y93.65
G1 F1140 X116.94 Y100.32 E28.79010
G0 F2460 X116.94 Y99.61
G1 F1140 X110.71 Y93.39 E29.28405
G0 F2460 X111.16 Y93.13
G1 F1140 X116.94 Y98.91 E29.74244
G0 F2460 X116.94 Y98.20
G1 F1140 X111.61 Y92.87 E30.16527
G0 F2460 X112.06 Y92.61
G1 F1140 X116.94 Y97.49 E30.55246
G0 F2460 X116.94 Y96.78
G1 F1140 X112.51 Y92.35 E30.90409
G0 F2460 X112.95 Y92.09
G1 F1140 X116.94 Y96.08 E31.22020
G0 F2460 X116.94 Y95.37
G1 F1140 X113.40 Y91.83 E31.50071
G0 F2460 X113.85 Y91.58
G1 F1140 X116.94 Y94.66 E31.74567
G0 F2460 X116.94 Y93.95
G1 F1140 X114.92 Y91.94 E31.90592
G0 F2460 X116.59 Y92.90
G1 F1140 X116.94 Y93.25 E31.93327
G0 F2460 X112.46 Y101.50
G1 F1140 X107.42 Y96.46 E32.33308
G0 F2460 X107.42 Y97.17
G1 F1140 X110.79 Y100.53 E32.60002
G0 F2460 X109.11 Y99.57
G1 F1140 X107.42 Y97.88 E32.73408
G0 F2460 X107.42 Y95.76
G1 F1140 X114.09 Y102.42 E33.26295
G1 F2400 E28.76295
G0 F2460 X114.07 Y107.37
;TYPE:WALL-INNER
G1 F2400 E33.26295
G1 F1140 X117.11 Y109.12 E33.45985
G1 X117.11 Y117.00 E33.90207
G1 X114.07 Y118.75 E34.09896
G1 X107.25 Y114.81 E34.54122
G1 X107.25 Y111.31 E34.73806
G1 X114.07 Y107.37 E35.18032
G0 F2460 X114.07 Y106.79
;TYPE:WALL-OUTER
G1 F1140 X117.61 Y108.83 E35.40960
G1 X117.61 Y117.29 E35.88426
G1 X114.07 Y119.33 E36.11353
G1 X106.75 Y115.10 E36.58821
G1 X106.75 Y111.02 E36.81737
G1 X114.07 Y106.79 E37.29205
G0 F2460 X113.76 Y107.75
;TYPE:FILL
G1 F1140 X116.94 Y110.93 E37.54423
G0 F2460 X116.94 Y110.22
G1 F1140 X114.58 Y107.86 E37.73163
G0 F2460 X113.31 Y108.01
G1 F1140 X116.94 Y111.63 E38.01940
G0 F2460 X116.94 Y112.34
G1 F1140 X112.86 Y108.27 E38.34278
G0 F2460 X112.41 Y108.53
G1 F1140 X116.94 Y113.05 E38.70171
G0 F2460 X116.94 Y113.75
G1 F1140 X111.97 Y108.78 E39.09620
G0 F2460 X111.52 Y109.04
G1 F1140 X116.94 Y114.46 E39.52633
G0 F2460 X116.94 Y115.17
G1 F1140 X111.07 Y109.30 E39.99195
G0 F2460 X110.62 Y109.56
G1 F1140 X116.94 Y115.88 E40.49316
G0 F2460 X116.94 Y116.58
G1 F1140 X110.17 Y109.82 E41.02993
G0 F2460 X109.72 Y110.08
G1 F1140 X116.69 Y117.04 E41.58250
G0 F2460 X116.24 Y117.30
G1 F1140 X109.28 Y110.34 E42.13511
G0 F2460 X108.83 Y110.60
G1 F1140 X115.79 Y117.56 E42.68767
G0 F2460 X115.34 Y117.82
G1 F1140 X108.38 Y110.86 E43.24020
G0 F2460 X107.93 Y111.11
G1 F1140 X114.89 Y118.08 E43.79281
G0 F2460 X114.44 Y118.33
G1 F1140 X107.48 Y111.37 E44.34546
G0 F2460 X107.43 Y112.02
G1 F1140 X113.79 Y118.39 E44.85076
G0 F2460 X112.12 Y117.42
G1 F1140 X107.43 Y112.73 E45.22318
G0 F2460 X107.43 Y113.44
G1 F1140 X110.44 Y116.45 E45.46278
G0 F2460 X108.77 Y115.49
G1 F1140 X107.43 Y114.14 E45.56946
G0 F2460 X116.25 Y108.83
G1 F1140 X116.94 Y109.51 E45.62395
G1 F2400 E41.12395
G0 F2460 X102.75 Y109.12
;TYPE:WALL-INNER
G1 F2400 E45.62395
G1 F1140 X102.75 Y117.00 E46.06617
G1 X99.71 Y118.75 E46.26301
G1 X92.89 Y114.81 E46.70535
G1 X92.89 Y111.31 E46.90207
G1 X99.71 Y107.37 E47.34441
G1 X102.75 Y109.12 E47.54126
G0 F2460 X103.25 Y108.83
;TYPE:WALL-OUTER
G1 F1140 X103.25 Y117.29 E48.01592
G1 X99.71 Y119.33 E48.24514
G1 X92.39 Y115.10 E48.71987
G1 X92.39 Y111.02 E48.94903
G1 X99.71 Y106.79 E49.42376
G1 X103.25 Y108.83 E49.65299
G0 F2460 X102.58 Y109.29
;TYPE:FILL
G1 F1140 X102.40 Y109.12 E49.66660
G0 F2460 X102.58 Y110.00
G1 F1140 X100.73 Y108.15 E49.81317
G0 F2460 X99.54 Y107.67
G1 F1140 X102.58 Y110.71 E50.05435
G0 F2460 X102.58 Y111.41
G1 F1140 X99.09 Y107.93 E50.33109
G0 F2460 X98.64 Y108.19
G1 F1140 X102.58 Y112.12 E50.64347
G0 F2460 X102.58 Y112.83
G1 F1140 X98.19 Y108.44 E50.99145
G0 F2460 X97.74 Y108.70
G1 F1140 X102.58 Y113.54 E51.37499
G0 F2460 X102.58 Y114.24
G1 F1140 X97.30 Y108.96 E51.79408
G0 F2460 X96.85 Y109.22
G1 F1140 X102.58 Y114.95 E52.24878
G0 F2460 X102.58 Y115.66
G1 F1140 X96.40 Y109.48 E52.73908
G0 F2460 X95.95 Y109.74
G1 F1140 X102.58 Y116.36 E53.26494
G0 F2460 X102.46 Y116.96
G1 F1140 X95.50 Y110.00 E53.81759
G0 F2460 X95.05 Y110.26
G1 F1140 X102.02 Y117.22 E54.37019
G0 F2460 X101.57 Y117.48
G1 F1140 X94.61 Y110.52 E54.92288
G0 F2460 X94.16 Y110.77
G1 F1140 X101.12 Y117.74 E55.47549
G0 F2460 X100.67 Y118.00
G1 F1140 X93.71 Y111.03 E56.02818
G0 F2460 X93.26 Y111.29
G1 F1140 X100.22 Y118.26 E56.58082
G0 F2460 X99.78 Y118.51
G1 F1140 X93.06 Y111.80 E57.11359
G0 F2460 X93.06 Y112.51
G1 F1140 X98.28 Y117.72 E57.52729
G0 F2460 X96.60 Y116.75
G1 F1140 X93.06 Y113.22 E57.80812
G0 F2460 X93.06 Y113.92
G1 F1140 X94.93 Y115.79 E57.95603
G0 F2460 X93.25 Y114.82
G1 F1140 X93.06 Y114.63 E57.97107
;LAYER:1
M106 S127
G0 F6000 X92.89 Y114.81 Z0.40
;TYPE:WALL-INNER
G1 F1560 X92.89 Y111.31 E58.03665
G1 X99.71 Y107.37 E58.18409
G1 X102.75 Y109.12 E58.24971
G1 X102.75 Y117.00 E58.39711
G1 X99.71 Y118.75 E58.46273
G1 X92.89 Y114.81 E58.61018
G0 F6000 X92.39 Y115.10
;TYPE:WALL-OUTER
G1 F1560 X92.39 Y111.02 E58.68656
G1 X99.71 Y106.79 E58.84481
G1 X103.25 Y108.83 E58.92121
G1 X103.25 Y117.29 E59.07944
G1 X99.71 Y119.33 E59.15584
G1 X92.39 Y115.10 E59.31409
G0 F6000 X93.06 Y114.47
;TYPE:FILL
G1 F1560 X99.88 Y107.66 E59.49435
G0 F6000 X100.32 Y107.92
G1 F1560 X93.36 Y114.88 E59.67860
G0 F6000 X93.81 Y115.14
G1 F1560 X100.77 Y108.18 E59.86282
G0 F6000 X101.22 Y108.44
G1 F1560 X94.26 Y115.40 E60.04707
G0 F6000 X94.70 Y115.66
G1 F1560 X101.67 Y108.69 E60.23133
G0 F6000 X102.12 Y108.95
G1 F1560 X95.15 Y115.92 E60.41557
G0 F6000 X95.60 Y116.18
G1 F1560 X102.56 Y109.22 E60.59968
G0 F6000 X102.58 Y109.91
G1 F1560 X96.05 Y116.44 E60.77233
G0 F6000 X96.50 Y116.69
G1 F1560 X102.58 Y110.62 E60.93312
G0 F6000 X102.58 Y111.32
G1 F1560 X96.95 Y116.95 E61.08205
G0 F6000 X97.39 Y117.21
G1 F1560 X102.58 Y112.03 E61.21914
G0 F6000 X102.58 Y112.74
G1 F1560 X97.84 Y117.47 E61.34436
G0 F6000 X98.29 Y117.73
G1 F1560 X102.58 Y113.45 E61.45772
G0 F6000 X102.58 Y114.15
G1 F1560 X98.74 Y117.99 E61.55923
G0 F6000 X99.19 Y118.25
G1 F1560 X102.58 Y114.86 E61.64887
G0 F6000 X102.58 Y115.57
G1 F1560 X99.64 Y118.51 E61.72664
G0 F6000 X101.10 Y117.75
G1 F1560 X102.58 Y116.27 E61.76567
G0 F6000 X98.65 Y108.18
G1 F1560 X93.06 Y113.77 E61.91344
G0 F6000 X93.06 Y113.06
G1 F1560 X96.97 Y109.15 E62.01693
G0 F6000 X95.30 Y110.11
G1 F1560 X93.06 Y112.35 E62.07616
G0 F6000 X93.06 Y111.64
G1 F1560 X93.63 Y111.08 E62.09111
G1 F2400 E57.59111
G0 F6000 X99.71 Y102.63
;TYPE:WALL-INNER
G1 F2400 E62.09111
G1 F1560 X92.89 Y98.69 E62.23855
G1 X92.89 Y95.19 E62.30413
G1 X99.71 Y91.25 E62.45157
G1 X102.75 Y93.00 E62.51719
G1 X102.75 Y100.88 E62.66460
G1 X99.71 Y102.63 E62.73021
G0 F6000 X99.71 Y103.21
;TYPE:WALL-OUTER
G1 F1560 X92.39 Y98.98 E62.88845
G1 X92.39 Y94.90 E62.96484
G1 X99.71 Y90.67 E63.12308
G1 X103.25 Y92.71 E63.19949
G1 X103.25 Y101.17 E63.35771
G1 X99.71 Y103.21 E63.43412
G0 F6000 X99.54 Y102.33
;TYPE:FILL
G1 F1560 X102.57 Y99.30 E63.51432
G0 F6000 X102.57 Y100.01
G1 F1560 X100.76 Y101.83 E63.56236
G0 F6000 X99.09 Y102.08
G1 F1560 X102.57 Y98.60 E63.65441
G0 F6000 X102.57 Y97.89
G1 F1560 X98.65 Y101.82 E63.75831
G0 F6000 X98.20 Y101.56
G1 F1560 X102.57 Y97.18 E63.87407
G0 F6000 X102.57 Y96.48
G1 F1560 X97.75 Y101.30 E64.00168
G0 F6000 X97.30 Y101.04
G1 F1560 X102.57 Y95.77 E64.14115
G0 F6000 X102.57 Y95.06
G1 F1560 X96.85 Y100.78 E64.29248
G0 F6000 X96.41 Y100.52
G1 F1560 X102.57 Y94.35 E64.45569
G0 F6000 X102.57 Y93.65
G1 F1560 X95.96 Y100.26 E64.63074
G0 F6000 X95.51 Y100.00
G1 F1560 X102.47 Y93.04 E64.81494
G0 F6000 X102.02 Y92.78
G1 F1560 X95.06 Y99.75 E64.99914
G0 F6000 X94.61 Y99.49
G1 F1560 X101.58 Y92.52 E65.18337
G0 F6000 X101.13 Y92.27
G1 F1560 X94.17 Y99.23 E65.36760
G0 F6000 X93.72 Y98.97
G1 F1560 X100.68 Y92.01 E65.55181
G0 F6000 X100.23 Y91.75
G1 F1560 X93.27 Y98.71 E65.73604
G0 F6000 X93.06 Y98.21
G1 F1560 X99.78 Y91.49 E65.91387
G0 F6000 X98.31 Y92.26
G1 F1560 X93.06 Y97.50 E66.05259
G0 F6000 X93.06 Y96.80
G1 F1560 X96.63 Y93.22 E66.14703
G0 F6000 X94.96 Y94.19
G1 F1560 X93.06 Y96.09 E66.19721
G0 F6000 X93.06 Y95.38
G1 F1560 X93.28 Y95.16 E66.20309
G0 F6000 X102.43 Y100.86
G1 F1560 X102.57 Y100.72 E66.20682
G1 F2400 E61.70682
G0 F6000 X107.25 Y98.69
;TYPE:WALL-INNER
G1 F2400 E66.20682
G1 F1560 X107.25 Y95.19 E66.27243
G1 X114.07 Y91.25 E66.41985
G1 X117.11 Y93.00 E66.48548
G1 X117.11 Y100.88 E66.63289
G1 X114.07 Y102.63 E66.69852
G1 X107.25 Y98.69 E66.84594
G0 F6000 X106.75 Y98.98
;TYPE:WALL-OUTER
G1 F1560 X106.75 Y94.90 E66.92233
G1 X114.07 Y90.67 E67.08055
G1 X117.61 Y92.71 E67.15698
G1 X117.61 Y101.17 E67.31520
G1 X114.07 Y103.21 E67.39162
G1 X106.75 Y98.98 E67.54985
G0 F6000 X107.49 Y98.63
;TYPE:FILL
G1 F1560 X114.45 Y91.67 E67.73408
G0 F6000 X114.90 Y91.93
G1 F1560 X107.94 Y98.89 E67.91831
G0 F6000 X108.39 Y99.15
G1 F1560 X115.35 Y92.19 E68.10256
G0 F6000 X115.80 Y92.44
G1 F1560 X108.83 Y99.41 E68.28679
G0 F6000 X109.28 Y99.67
G1 F1560 X116.25 Y92.70 E68.47102
G0 F6000 X116.69 Y92.96
G1 F1560 X109.73 Y99.92 E68.65525
G0 F6000 X110.18 Y100.18
G1 F1560 X116.94 Y93.43 E68.83403
G0 F6000 X116.94 Y94.14
G1 F1560 X110.63 Y100.44 E69.00093
G0 F6000 X111.08 Y100.70
G1 F1560 X116.94 Y94.84 E69.15596
G0 F6000 X116.94 Y95.55
G1 F1560 X111.52 Y100.96 E69.29914
G0 F6000 X111.97 Y101.22
G1 F1560 X116.94 Y96.26 E69.43045
G0 F6000 X116.94 Y96.96
G1 F1560 X112.42 Y101.48 E69.54993
G0 F6000 X112.87 Y101.74
G1 F1560 X116.94 Y97.67 E69.65754
G0 F6000 X116.94 Y98.38
G1 F1560 X113.32 Y102.00 E69.75329
G0 F6000 X113.77 Y102.26
G1 F1560 X116.94 Y99.08 E69.83719
G0 F6000 X116.94 Y99.79
G1 F1560 X114.60 Y102.13 E69.89897
G0 F6000 X116.28 Y101.16
G1 F1560 X116.94 Y100.50 E69.91643
G0 F6000 X112.15 Y92.56
G1 F1560 X107.42 Y97.28 E70.04141
G0 F6000 X107.42 Y97.99
G1 F1560 X113.82 Y91.59 E70.21068
G0 F6000 X110.47 Y93.53
G1 F1560 X107.42 Y96.58 E70.29135
G0 F6000 X107.42 Y95.87
G1 F1560 X108.80 Y94.49 E70.32773
G1 F2400 E65.82773
G0 F6000 X114.07 Y107.37
;TYPE:WALL-INNER
G1 F2400 E70.32773
G1 F1560 X117.11 Y109.12 E70.39336
G1 X117.11 Y117.00 E70.54077
G1 X114.07 Y118.75 E70.60640
G1 X107.25 Y114.81 E70.75382
G1 X107.25 Y111.31 E70.81943
G1 X114.07 Y107.37 E70.96685
G0 F6000 X114.07 Y106.79
;TYPE:WALL-OUTER
G1 F1560 X117.61 Y108.83 E71.04328
G1 X117.61 Y117.29 E71.20150
G1 X114.07 Y119.33 E71.27792
G1 X106.75 Y115.10 E71.43615
G1 X106.75 Y111.02 E71.51254
G1 X114.07 Y106.79 E71.67076
G0 F6000 X114.10 Y107.58
;TYPE:FILL
G1 F1560 X107.43 Y114.25 E71.84729
G0 F6000 X107.58 Y114.80
G1 F1560 X114.54 Y107.84 E72.03149
G0 F6000 X114.99 Y108.10
G1 F1560 X108.03 Y115.06 E72.21571
G0 F6000 X108.48 Y115.32
G1 F1560 X115.44 Y108.36 E72.39991
G0 F6000 X115.89 Y108.62
G1 F1560 X108.93 Y115.58 E72.58411
G0 F6000 X109.38 Y115.84
G1 F1560 X116.34 Y108.88 E72.76833
G0 F6000 X116.79 Y109.13
G1 F1560 X109.82 Y116.10 E72.95256
G0 F6000 X110.27 Y116.36
G1 F1560 X116.94 Y109.69 E73.12889
G0 F6000 X116.94 Y110.40
G1 F1560 X110.72 Y116.61 E73.29335
G0 F6000 X111.17 Y116.87
G1 F1560 X116.94 Y111.11 E73.44597
G0 F6000 X116.94 Y111.81
G1 F1560 X111.62 Y117.13 E73.58672
G0 F6000 X112.07 Y117.39
G1 F1560 X116.94 Y112.52 E73.71562
G0 F6000 X116.94 Y113.23
G1 F1560 X112.51 Y117.65 E73.83264
G0 F6000 X112.96 Y117.91
G1 F1560 X116.94 Y113.93 E73.93781
G0 F6000 X116.94 Y114.64
G1 F1560 X113.41 Y118.17 E74.03110
G0 F6000 X113.86 Y118.43
G1 F1560 X116.94 Y115.35 E74.11256
G0 F6000 X116.94 Y116.06
G1 F1560 X114.94 Y118.05 E74.16527
G0 F6000 X116.62 Y117.08
G1 F1560 X116.94 Y116.76 E74.17369
G0 F6000 X112.49 Y108.48
G1 F1560 X107.43 Y113.55 E74.30767
G0 F6000 X107.43 Y112.84
G1 F1560 X110.82 Y109.45 E74.39737
G0 F6000 X109.14 Y110.41
G1 F1560 X107.43 Y112.13 E74.44278
;LAYER:2
M106 S255
G0 F6000 X107.25 Y111.31 Z0.50
;TYPE:WALL-INNER
G1 F1980 X114.07 Y107.37 E74.59020
G1 X117.11 Y109.12 E74.65583
G1 X117.11 Y117.00 E74.80324
G1 X114.07 Y118.75 E74.86887
G1 X107.25 Y114.81 E75.01629
G1 X107.25 Y111.31 E75.08190
