;Generated with Cura_SteamEngine 13.12
M140 S58.000000
M109 T0 S172.000000
T0
M190 S58.000000
;Sliced at: Sat 18-01-2014 01:09:31
;Basic settings: Layer height: 0.1 Walls: 1 Fill: 20
;Print time: #P_TIME#
;Filament used: #F_AMNT#m #F_WGHT#g
;Filament cost: #F_COST#
;M190 S58 ;Uncomment to add your own bed temperature line
;M109 S172 ;Uncomment to add your own temperature line
G21        ;metric values
G90        ;absolute positioning
M107       ;start with the fan off
G28 X0 Y0  ;move X/Y to min endstops
G28 Z0     ;move Z to min endstops
G1 Z15.0 F6000 ;move the platform down 15mm
G92 E0                  ;zero the extruded length
G1 F200 E3              ;extrude 3mm of feed stock
G92 E0                  ;zero the extruded length again
G1 F6000
;Put printing message on LCD screen
M117 Printing...

;Layer count: 307
;LAYER:0
M107
G0 F3000 X94.03 Y54.62 Z0.30
;TYPE:SKIRT
G1 F2400 E0.00000
G1 F1200 X94.63 Y53.57 E0.06764
G1 X101.85 Y49.41 E0.53545
G1 X101.85 Y49.41 E0.53558
G1 X102.00 Y49.32 E0.54503
G1 X102.09 Y49.27 E0.55099
G1 X102.09 Y49.27 E0.55105
G1 X102.80 Y48.86 E0.59676
G1 X104.00 Y48.86 E0.66429
G1 X104.62 Y49.22 E0.70466
G1 X104.63 Y49.22 E0.70486
G1 X107.94 Y51.13 E0.91961
G1 X107.97 Y51.15 E0.92155
G1 X107.97 Y51.15 E0.92188
G1 X108.06 Y51.20 E0.92733
G1 X108.61 Y51.52 E0.96284
G1 X109.21 Y52.56 E1.03053
G1 X109.21 Y61.99 E1.55969
G1 X108.61 Y63.03 E1.62739
G1 X108.03 Y63.37 E1.66461
G1 X107.97 Y63.40 E1.66820
G1 X107.97 Y63.40 E1.66833
G1 X107.91 Y63.44 E1.67268
G1 X104.01 Y65.69 E1.92557
G1 X102.80 Y65.69 E1.99303
G1 X102.16 Y65.33 E2.03444
G1 X102.16 Y65.33 E2.03469
G1 X94.63 Y60.98 E2.52255
G1 X94.03 Y59.93 E2.59019
G1 X94.03 Y54.62 E2.88855
G0 F3000 X94.53 Y54.75
G1 F1200 X95.00 Y53.94 E2.94116
G1 X102.10 Y49.84 E3.40145
G1 X102.10 Y49.84 E3.40153
G1 X102.34 Y49.70 E3.41692
G1 X102.93 Y49.36 E3.45524
G1 X103.86 Y49.36 E3.50772
G1 X104.37 Y49.65 E3.54061
G1 X104.38 Y49.65 E3.54076
G1 X107.70 Y51.57 E3.75617
G1 X107.70 Y51.57 E3.75622
G1 X107.72 Y51.59 E3.75758
G1 X107.72 Y51.59 E3.75787
G1 X107.81 Y51.63 E3.76332
G1 X108.24 Y51.88 E3.79131
G1 X108.71 Y52.70 E3.84394
G1 X108.71 Y61.86 E4.35806
G1 X108.24 Y62.67 E4.41069
G1 X107.78 Y62.93 E4.44039
G1 X107.78 Y62.93 E4.44044
G1 X107.73 Y62.96 E4.44406
G1 X107.72 Y62.97 E4.44427
G1 X107.66 Y63.01 E4.44857
G1 X107.66 Y63.00 E4.44863
G1 X103.87 Y65.19 E4.69407
G1 X102.94 Y65.19 E4.74655
G1 X102.41 Y64.89 E4.78044
G1 X102.41 Y64.89 E4.78064
G1 X95.00 Y60.61 E5.26095
G1 X94.53 Y59.80 E5.31356
G1 X94.53 Y54.75 E5.59688
G0 F3000 X95.03 Y54.89
G1 F1200 X95.36 Y54.31 E5.63445
G1 X102.35 Y50.27 E6.08722
G1 X102.35 Y50.27 E6.08728
G1 X102.50 Y50.19 E6.09673
G1 X102.59 Y50.13 E6.10269
G1 X103.06 Y49.86 E6.13350
G1 X103.73 Y49.86 E6.17099
G1 X104.12 Y50.08 E6.19631
G1 X104.13 Y50.09 E6.19644
G1 X107.44 Y52.00 E6.41146
G1 X107.47 Y52.02 E6.41332
G1 X107.47 Y52.02 E6.41352
G1 X107.56 Y52.07 E6.41895
G1 X107.87 Y52.25 E6.43942
G1 X108.21 Y52.83 E6.47701
G1 X108.21 Y61.72 E6.97609
G1 X107.87 Y62.30 E7.01368
G1 X107.53 Y62.50 E7.03586
G1 X107.47 Y62.53 E7.03953
G1 X107.47 Y62.53 E7.03959
G1 X107.41 Y62.57 E7.04389
G1 X103.74 Y64.69 E7.28195
G1 X103.07 Y64.69 E7.31938
G1 X102.66 Y64.46 E7.34571
G1 X102.66 Y64.46 E7.34591
G1 X95.36 Y60.25 E7.81865
G1 X95.03 Y59.67 E7.85621
G1 X95.03 Y54.89 E8.12450
G0 F3000 X95.53 Y55.02
G1 F1200 X95.73 Y54.67 E8.14703
G1 X102.60 Y50.70 E8.59228
G1 X102.75 Y50.62 E8.60179
G1 X102.84 Y50.57 E8.60775
G1 X103.20 Y50.36 E8.63103
G1 X103.60 Y50.36 E8.65354
G1 X103.87 Y50.52 E8.67134
G1 X103.88 Y50.52 E8.67140
G1 X107.19 Y52.44 E8.88655
G1 X107.22 Y52.45 E8.88836
G1 X107.22 Y52.45 E8.88848
G1 X107.31 Y52.50 E8.89394
G1 X107.31 Y52.50 E8.89400
G1 X107.51 Y52.62 E8.90695
G1 X107.71 Y52.96 E8.92950
G1 X107.71 Y61.59 E9.41354
G1 X107.51 Y61.94 E9.43609
G1 X107.28 Y62.07 E9.45075
G1 X107.22 Y62.10 E9.45442
G1 X107.22 Y62.10 E9.45448
G1 X107.16 Y62.14 E9.45878
G1 X103.60 Y64.19 E9.68932
G1 X103.20 Y64.19 E9.71183
G1 X102.91 Y64.03 E9.73066
G1 X102.91 Y64.03 E9.73074
G1 X95.73 Y59.88 E10.19596
G1 X95.53 Y59.53 E10.21849
G1 X95.53 Y55.02 E10.47173
G0 F3000 X96.03 Y55.15
G1 F1200 X96.10 Y55.04 E10.47922
G1 X102.85 Y51.14 E10.91696
G1 X102.85 Y51.14 E10.91702
G1 X103.00 Y51.05 E10.92652
G1 X103.09 Y51.00 E10.93248
G1 X103.09 Y51.00 E10.93253
G1 X103.33 Y50.86 E10.94838
G1 X103.47 Y50.86 E10.95590
G1 X103.63 Y50.95 E10.96621
G1 X106.95 Y52.87 E11.18149
G1 X106.97 Y52.89 E11.18330
G1 X107.06 Y52.94 E11.18875
G1 X107.06 Y52.93 E11.18881
G1 X107.14 Y52.98 E11.19424
G1 X107.21 Y53.10 E11.20176
G1 X107.21 Y61.45 E11.67075
G1 X107.14 Y61.57 E11.67827
G1 X107.03 Y61.63 E11.68541
G1 X107.03 Y61.63 E11.68547
G1 X106.97 Y61.67 E11.68922
G1 X106.97 Y61.67 E11.68927
G1 X106.91 Y61.70 E11.69357
G1 X106.91 Y61.70 E11.69363
G1 X103.47 Y63.69 E11.91673
G1 X103.33 Y63.69 E11.92425
G1 X103.16 Y63.59 E11.93559
G1 X96.10 Y59.51 E12.39329
G1 X96.03 Y59.40 E12.40078
G1 X96.03 Y55.15 E12.63898
G0 F3000 X60.17 Y116.04
G1 F1200 X60.17 Y116.04 E12.63914
G1 X63.48 Y117.96 E12.85401
G1 X63.48 Y117.96 E12.85407
G1 X63.51 Y117.97 E12.85601
G1 X63.52 Y117.97 E12.85633
G1 X63.60 Y118.02 E12.86179
G1 X64.15 Y118.34 E12.89730
G1 X64.75 Y119.38 E12.96499
G1 X64.75 Y128.81 E13.49415
G1 X64.15 Y129.86 E13.56185
G1 X63.58 Y130.19 E13.59907
G1 X63.52 Y130.22 E13.60266
G1 X63.52 Y130.22 E13.60278
G1 X63.45 Y130.26 E13.60714
G1 X63.45 Y130.26 E13.60719
G1 X59.55 Y132.51 E13.86021
G1 X58.35 Y132.52 E13.92762
G1 X57.71 Y132.15 E13.96902
G1 X57.70 Y132.15 E13.96927
G1 X50.18 Y127.80 E14.45713
G1 X49.57 Y126.76 E14.52477
G1 X49.57 Y121.44 E14.82314
G1 X50.18 Y120.40 E14.89078
G1 X57.39 Y116.23 E15.35859
G1 X57.40 Y116.23 E15.35872
G1 X57.54 Y116.14 E15.36817
G1 X57.63 Y116.09 E15.37413
G1 X57.63 Y116.09 E15.37418
G1 X58.34 Y115.68 E15.41990
G1 X59.54 Y115.68 E15.48742
G1 X60.17 Y116.04 E15.52780
G0 F3000 X59.92 Y116.47
G1 F1200 X59.92 Y116.47 E15.52800
G1 X63.23 Y118.39 E15.74295
G1 X63.26 Y118.41 E15.74484
G1 X63.27 Y118.41 E15.74513
G1 X63.35 Y118.46 E15.75058
G1 X63.78 Y118.71 E15.77857
G1 X64.25 Y119.52 E15.83120
G1 X64.25 Y128.68 E16.34532
G1 X63.78 Y129.49 E16.39795
G1 X63.33 Y129.76 E16.42765
G1 X63.33 Y129.75 E16.42770
G1 X63.27 Y129.79 E16.43132
G1 X63.27 Y129.79 E16.43153
G1 X63.20 Y129.83 E16.43583
G1 X63.20 Y129.83 E16.43589
G1 X59.41 Y132.01 E16.68138
G1 X58.48 Y132.02 E16.73386
G1 X57.95 Y131.72 E16.76775
G1 X57.95 Y131.71 E16.76795
G1 X50.54 Y127.43 E17.24826
G1 X50.07 Y126.62 E17.30086
G1 X50.07 Y121.57 E17.58419
G1 X50.54 Y120.76 E17.63679
G1 X57.64 Y116.66 E18.09709
G1 X57.65 Y116.66 E18.09717
G1 X57.88 Y116.52 E18.11255
G1 X58.47 Y116.18 E18.15088
G1 X59.41 Y116.18 E18.20335
G1 X59.92 Y116.47 E18.23619
G0 F3000 X59.67 Y116.91
G1 F1200 X62.99 Y118.82 E18.45127
G1 X63.02 Y118.84 E18.45313
G1 X63.02 Y118.84 E18.45333
G1 X63.10 Y118.89 E18.45876
G1 X63.42 Y119.07 E18.47923
G1 X63.75 Y119.65 E18.51682
G1 X63.75 Y128.54 E19.01590
G1 X63.42 Y129.12 E19.05349
G1 X63.08 Y129.32 E19.07567
G1 X63.02 Y129.35 E19.07934
G1 X63.02 Y129.35 E19.07939
G1 X62.95 Y129.39 E19.08370
G1 X59.28 Y131.51 E19.32177
G1 X58.61 Y131.51 E19.35921
G1 X58.20 Y131.28 E19.38553
G1 X58.20 Y131.28 E19.38573
G1 X50.91 Y127.07 E19.85848
G1 X50.57 Y126.49 E19.89604
G1 X50.57 Y121.71 E20.16433
G1 X50.91 Y121.13 E20.20189
G1 X57.89 Y117.09 E20.65467
G1 X57.90 Y117.09 E20.65472
G1 X58.04 Y117.01 E20.66418
G1 X58.13 Y116.96 E20.67014
G1 X58.61 Y116.68 E20.70094
G1 X59.28 Y116.68 E20.73843
G1 X59.67 Y116.91 E20.76375
G1 X59.67 Y116.91 E20.76388
G0 F3000 X59.42 Y117.34
G1 F1200 X62.74 Y119.26 E20.97908
G1 X62.77 Y119.27 E20.98089
G1 X62.77 Y119.28 E20.98101
G1 X62.85 Y119.32 E20.98647
G1 X62.85 Y119.32 E20.98653
G1 X63.05 Y119.44 E20.99948
G1 X63.25 Y119.79 E21.02203
G1 X63.25 Y128.41 E21.50607
G1 X63.05 Y128.76 E21.52862
G1 X62.83 Y128.89 E21.54329
G1 X62.77 Y128.92 E21.54695
G1 X62.77 Y128.92 E21.54701
G1 X62.70 Y128.96 E21.55131
G1 X59.15 Y131.01 E21.78190
G1 X58.74 Y131.01 E21.80441
G1 X58.45 Y130.85 E21.82324
G1 X58.45 Y130.85 E21.82332
G1 X51.27 Y126.70 E22.28854
G1 X51.07 Y126.35 E22.31107
G1 X51.07 Y121.84 E22.56431
G1 X51.27 Y121.49 E22.58684
G1 X58.14 Y117.53 E23.03209
G1 X58.29 Y117.44 E23.04160
G1 X58.38 Y117.39 E23.04756
G1 X58.74 Y117.18 E23.07084
G1 X59.14 Y117.18 E23.09335
G1 X59.42 Y117.34 E23.11115
G1 X59.42 Y117.34 E23.11121
G0 F3000 X59.17 Y117.77
G1 F1200 X62.49 Y119.69 E23.32653
G1 X62.52 Y119.71 E23.32834
G1 X62.60 Y119.76 E23.33380
G1 X62.60 Y119.76 E23.33386
G1 X62.69 Y119.80 E23.33929
G1 X62.75 Y119.92 E23.34681
G1 X62.75 Y128.28 E23.81580
G1 X62.69 Y128.39 E23.82332
G1 X62.58 Y128.46 E23.83046
G1 X62.58 Y128.46 E23.83052
G1 X62.52 Y128.49 E23.83426
G1 X62.52 Y128.49 E23.83432
G1 X62.45 Y128.53 E23.83862
G1 X62.45 Y128.53 E23.83868
G1 X59.01 Y130.51 E24.06182
G1 X58.88 Y130.51 E24.06934
G1 X58.70 Y130.41 E24.08068
G1 X51.64 Y126.34 E24.53839
G1 X51.57 Y126.22 E24.54588
G1 X51.57 Y121.98 E24.78408
G1 X51.64 Y121.86 E24.79157
G1 X58.39 Y117.96 E25.22931
G1 X58.39 Y117.96 E25.22936
G1 X58.54 Y117.88 E25.23886
G1 X58.63 Y117.82 E25.24482
G1 X58.63 Y117.82 E25.24488
G1 X58.88 Y117.68 E25.26073
G1 X59.01 Y117.68 E25.26825
G1 X59.17 Y117.77 E25.27856
G0 F3000 X120.37 Y126.63
G1 F1200 X120.97 Y125.59 E25.34625
G1 X128.19 Y121.42 E25.81411
G1 X128.19 Y121.42 E25.81422
G1 X128.34 Y121.33 E25.82367
G1 X128.43 Y121.28 E25.82963
G1 X128.43 Y121.28 E25.82969
G1 X129.13 Y120.88 E25.87541
G1 X130.34 Y120.87 E25.94293
G1 X130.96 Y121.23 E25.98330
G1 X130.96 Y121.23 E25.98343
G1 X134.28 Y123.15 E26.19827
G1 X134.31 Y123.16 E26.20021
G1 X134.31 Y123.17 E26.20054
G1 X134.40 Y123.22 E26.20599
G1 X134.94 Y123.53 E26.24150
G1 X135.55 Y124.58 E26.30920
G1 X135.55 Y134.00 E26.83841
G1 X134.94 Y135.05 E26.90611
G1 X134.37 Y135.38 E26.94332
G1 X134.31 Y135.41 E26.94692
G1 X134.31 Y135.41 E26.94704
G1 X134.25 Y135.45 E26.95139
G1 X134.25 Y135.45 E26.95145
G1 X130.34 Y137.71 E27.20447
G1 X129.14 Y137.71 E27.27187
G1 X128.50 Y137.34 E27.31325
G1 X128.50 Y137.34 E27.31351
G1 X120.97 Y132.99 E27.80141
G1 X120.37 Y131.95 E27.86910
G1 X120.37 Y126.63 E28.16747
G0 F3000 X120.87 Y126.77
G1 F1200 X121.33 Y125.95 E28.22012
G1 X128.44 Y121.85 E28.68046
G1 X128.44 Y121.85 E28.68052
G1 X128.68 Y121.72 E28.69590
G1 X129.27 Y121.37 E28.73423
G1 X130.20 Y121.37 E28.78670
G1 X130.71 Y121.66 E28.81954
G1 X130.71 Y121.67 E28.81972
G1 X134.04 Y123.58 E29.03509
G1 X134.04 Y123.58 E29.03515
G1 X134.06 Y123.60 E29.03658
G1 X134.06 Y123.60 E29.03687
G1 X134.15 Y123.65 E29.04233
G1 X134.58 Y123.90 E29.07031
G1 X135.05 Y124.71 E29.12295
G1 X135.05 Y133.87 E29.63712
G1 X134.58 Y134.68 E29.68975
G1 X134.12 Y134.95 E29.71945
G1 X134.12 Y134.95 E29.71951
G1 X134.06 Y134.98 E29.72313
G1 X134.06 Y134.98 E29.72333
G1 X134.00 Y135.02 E29.72763
G1 X134.00 Y135.02 E29.72769
G1 X130.21 Y137.21 E29.97318
G1 X129.27 Y137.21 E30.02566
G1 X128.75 Y136.91 E30.05955
G1 X128.75 Y136.91 E30.05971
G1 X121.33 Y132.63 E30.54007
G1 X120.87 Y131.81 E30.59272
G1 X120.87 Y126.77 E30.87605
G0 F3000 X121.37 Y126.90
G1 F1200 X121.70 Y126.32 E30.91366
G1 X128.69 Y122.29 E31.36648
G1 X128.69 Y122.29 E31.36656
G1 X128.83 Y122.20 E31.37602
G1 X128.93 Y122.15 E31.38198
G1 X129.40 Y121.87 E31.41278
G1 X130.07 Y121.87 E31.45027
G1 X130.46 Y122.10 E31.47559
G1 X130.46 Y122.10 E31.47571
G1 X133.79 Y124.02 E31.69108
G1 X133.79 Y124.02 E31.69114
G1 X133.81 Y124.03 E31.69267
G1 X133.81 Y124.03 E31.69287
G1 X133.90 Y124.08 E31.69830
G1 X134.21 Y124.26 E31.71877
G1 X134.55 Y124.84 E31.75636
G1 X134.55 Y133.74 E32.25549
G1 X134.21 Y134.32 E32.29309
G1 X133.87 Y134.51 E32.31527
G1 X133.81 Y134.55 E32.31894
G1 X133.81 Y134.55 E32.31899
G1 X133.75 Y134.59 E32.32329
G1 X130.07 Y136.71 E32.56137
G1 X129.41 Y136.71 E32.59881
G1 X129.00 Y136.47 E32.62513
G1 X129.00 Y136.47 E32.62531
G1 X121.70 Y132.26 E33.09810
G1 X121.37 Y131.68 E33.13571
G1 X121.37 Y126.90 E33.40400
G0 F3000 X121.87 Y127.03
G1 F1200 X122.07 Y126.69 E33.42657
G1 X128.94 Y122.72 E33.87188
G1 X128.94 Y122.72 E33.87193
G1 X129.08 Y122.64 E33.88144
G1 X129.18 Y122.58 E33.88740
G1 X129.54 Y122.37 E33.91068
G1 X129.94 Y122.37 E33.93319
G1 X130.21 Y122.53 E33.95099
G1 X130.21 Y122.53 E33.95107
G1 X133.54 Y124.45 E34.16644
G1 X133.54 Y124.45 E34.16650
G1 X133.56 Y124.47 E34.16811
G1 X133.56 Y124.47 E34.16823
G1 X133.65 Y124.52 E34.17369
G1 X133.65 Y124.51 E34.17375
G1 X133.85 Y124.63 E34.18670
G1 X134.05 Y124.98 E34.20925
G1 X134.05 Y133.60 E34.69334
G1 X133.85 Y133.95 E34.71590
G1 X133.62 Y134.08 E34.73056
G1 X133.56 Y134.11 E34.73423
G1 X133.56 Y134.11 E34.73429
G1 X133.50 Y134.15 E34.73859
G1 X129.94 Y136.21 E34.96917
G1 X129.54 Y136.21 E34.99168
G1 X129.25 Y136.04 E35.01051
G1 X129.25 Y136.04 E35.01057
G1 X122.07 Y131.90 E35.47584
G1 X121.87 Y131.55 E35.49842
G1 X121.87 Y127.03 E35.75166
G0 F3000 X122.37 Y127.17
G1 F1200 X122.43 Y127.05 E35.75920
G1 X129.19 Y123.15 E36.19698
G1 X129.19 Y123.15 E36.19706
G1 X129.33 Y123.07 E36.20657
G1 X129.43 Y123.02 E36.21253
G1 X129.43 Y123.02 E36.21258
G1 X129.67 Y122.87 E36.22843
G1 X129.80 Y122.87 E36.23595
G1 X129.96 Y122.97 E36.24626
G1 X129.96 Y122.96 E36.24631
G1 X133.29 Y124.88 E36.46169
G1 X133.31 Y124.90 E36.46345
G1 X133.40 Y124.95 E36.46891
G1 X133.40 Y124.95 E36.46896
G1 X133.48 Y125.00 E36.47439
G1 X133.55 Y125.11 E36.48191
G1 X133.55 Y133.47 E36.95096
G1 X133.48 Y133.58 E36.95848
G1 X133.37 Y133.65 E36.96562
G1 X133.37 Y133.65 E36.96568
G1 X133.31 Y133.68 E36.96943
G1 X133.31 Y133.68 E36.96948
G1 X133.25 Y133.72 E36.97378
G1 X133.25 Y133.72 E36.97384
G1 X129.80 Y135.71 E37.19698
G1 X129.67 Y135.71 E37.20451
G1 X129.50 Y135.61 E37.21585
G1 X129.50 Y135.61 E37.21590
G1 X122.43 Y131.53 E37.67365
G1 X122.37 Y131.41 E37.68119
G1 X122.37 Y127.17 E37.91940
G1 F2400 E33.41940
G0 F3000 X103.40 Y62.58
;TYPE:WALL-INNER
G1 F2400 E37.91940
G1 F1200 X97.03 Y58.90 E38.33219
G1 X97.03 Y55.65 E38.51443
G1 X103.40 Y51.98 E38.92727
G1 X106.21 Y53.60 E39.10936
G1 X106.21 Y60.95 E39.52222
G1 X103.40 Y62.58 E39.70439
G0 F3000 X103.40 Y63.16
;TYPE:WALL-OUTER
G1 F1200 X96.53 Y59.19 E40.14959
G1 X96.53 Y55.37 E40.36416
G1 X103.10 Y51.57 E40.78998
G1 X103.25 Y51.49 E40.79944
G1 X103.34 Y51.43 E40.80540
G1 X103.40 Y51.40 E40.80942
G1 X106.71 Y53.31 E41.02392
G1 X106.71 Y61.24 E41.46911
G1 X106.66 Y61.27 E41.47241
G1 X103.40 Y63.16 E41.68369
G0 F3000 X103.61 Y62.25
;TYPE:FILL
G1 F1200 X97.20 Y55.84 E42.19260
G0 F3000 X97.60 Y55.53
G1 F1200 X104.06 Y61.99 E42.70568
G0 F3000 X104.51 Y61.73
G1 F1200 X98.05 Y55.27 E43.21868
G0 F3000 X98.50 Y55.01
G1 F1200 X104.96 Y61.47 E43.73168
G0 F3000 X105.41 Y61.21
G1 F1200 X98.94 Y54.75 E44.24472
G0 F3000 X99.39 Y54.49
G1 F1200 X105.86 Y60.95 E44.75776
G0 F3000 X106.03 Y60.42
G1 F1200 X99.84 Y54.23 E45.24932
G0 F3000 X100.29 Y53.97
G1 F1200 X106.03 Y59.72 E45.70529
G0 F3000 X106.03 Y59.01
G1 F1200 X100.74 Y53.71 E46.12566
G0 F3000 X101.19 Y53.45
G1 F1200 X106.03 Y58.30 E46.51047
G0 F3000 X106.03 Y57.60
G1 F1200 X101.63 Y53.20 E46.85968
G0 F3000 X102.08 Y52.94
G1 F1200 X106.03 Y56.89 E47.17329
G0 F3000 X106.03 Y56.18
G1 F1200 X102.53 Y52.68 E47.45134
G0 F3000 X102.98 Y52.42
G1 F1200 X106.03 Y55.48 E47.69383
G0 F3000 X106.03 Y54.77
G1 F1200 X103.50 Y52.23 E47.89505
G0 F3000 X105.18 Y53.20
G1 F1200 X106.03 Y54.06 E47.96319
G0 F3000 X102.54 Y61.88
G1 F1200 X97.20 Y56.55 E48.38669
G0 F3000 X97.20 Y57.25
G1 F1200 X100.86 Y60.91 E48.67725
G0 F3000 X99.19 Y59.95
G1 F1200 X97.20 Y57.96 E48.83496
G0 F3000 X97.20 Y58.67
G1 F1200 X97.52 Y58.98 E48.85977
G1 F2400 E44.35977
G0 F3000 X61.75 Y120.42
;TYPE:WALL-INNER
G1 F2400 E48.85977
G1 F1200 X61.75 Y127.78 E49.27258
G1 X58.94 Y129.40 E49.45479
G1 X52.57 Y125.72 E49.86758
G1 X52.57 Y122.47 E50.04982
G1 X58.94 Y118.80 E50.46267
G1 X61.75 Y120.42 E50.64483
G0 F3000 X62.25 Y120.13
;TYPE:WALL-OUTER
G1 F1200 X62.25 Y128.06 E51.09002
G1 X62.20 Y128.09 E51.09332
G1 X58.94 Y129.98 E51.30464
G1 X52.07 Y126.01 E51.74985
G1 X52.07 Y122.19 E51.96442
G1 X58.64 Y118.39 E52.39024
G1 X58.79 Y118.31 E52.39970
G1 X58.88 Y118.26 E52.40566
G1 X58.94 Y118.22 E52.40968
G1 X62.25 Y120.13 E52.62423
G0 F3000 X61.58 Y120.62
;TYPE:FILL
